svgs/apperrorstracking.svg

<svg width="192" height="192" viewBox="0 0 192 192" fill="none" xmlns="http://www.w3.org/2000/svg">
<path d="M32.5714 54.6273L50.1905 72.108M50.1905 72.108V107.652M50.1905 72.108H141.81M50.1905 107.652H22M50.1905 107.652C50.1905 120.571 51.1097 132.698 59.2499 143.531M32.5714 170L59.2499 143.531M59.2499 143.531C67.6012 154.645 80.9534 161.842 96 161.842M96 161.842C111.047 161.842 124.399 154.645 132.75 143.531M96 161.842V107.652M159.429 54.6273L141.81 72.108M141.81 72.108V107.652M141.81 107.652H170M141.81 107.652C141.81 120.571 140.89 132.698 132.75 143.531M159.429 170L132.75 143.531M69 49C69 34.0883 81.0883 22 96 22C110.912 22 123 34.0883 123 49H69Z" stroke="black" stroke-width="12" stroke-linecap="round" stroke-linejoin="round"/>
</svg>

<svg xmlns="http://www.w3.org/2000/svg" width="192" height="192" fill="none" viewBox="0 0 192 192"><path stroke="#000" stroke-linecap="round" stroke-linejoin="round" stroke-width="12" d="m32.571 54.627 17.62 17.481m0 0v35.544m0-35.544h91.619m-91.62 35.544H22m28.19 0c0 12.919.92 25.046 9.06 35.879M32.57 170l26.679-26.469m0 0A45.86 45.86 0 0 0 96 161.842m0 0a45.86 45.86 0 0 0 36.75-18.311M96 161.842v-54.19m63.429-53.025L141.81 72.108m0 0v35.544m0 0H170m-28.19 0c0 12.919-.92 25.046-9.06 35.879M159.429 170l-26.679-26.469M69 49c0-14.912 12.088-27 27-27s27 12.088 27 27z"/></svg>
